K	R0
K   R8
ABCDEFH r2
G   [r8]3 !jup 8

G   [r8r8r8 !jul 8V0 o4]8


C   e12r24e12&e48r12e12&e48r12    e12r24e12&e48r12e12&e48r12
D   g12r24g12&g48r12g12&g48r12    g12r24g12&g48r12g12&g48r12
A   b12r24b12&b48r12b12&b48r12 a+12r24a+12&a+48r12a+12&a+48r12
H   r1&r1
E   r1&r1
F   r1&r1
B   r1&r1

;1===============
C   f12r24f12&f48r12f12&f48r12f12r24f12&f48r12a12&a48r12
D   g12r24g12&g48r12g12&g48r12    g12r24g12&g48r12g12&g48r12
A    >c12r24c12&c48r12c12&c48r12<b12r24b12&b48r12b12&b48r12
H   r1&r1
E   r1&r1
F   r1&r1
B   r1&r1
;1===============
C   e12r24e12&e48r12e12&e48r12    e12r24e12&e48r12e12&e48r12
D   g12r24g12&g48r12g12&g48r12    g12r24g12&g48r12g12&g48r12
A   b12r24b12&b48r12b12&b48r12 a+12r24a+12&a+48r12a+12&a+48r12
;1================
C   f12r24f12&f48r12f12&f48r12 f12r24f12&f48r12f12&f48r12 
D   g12r24g12&g48r12g12&g48r12    a+12r24a+12&a+48r12g+12&g+48r12
A   >c12r24c12&c48r12c12&c48r12 <b12r24b12&b48r12b12&b48r12
;1================