#include D:\Ment\Syrmml\auxloop.mml
K   R1

C   @13
G   [r8r8r8 !jul 8V0 o4]8
;1=============
D   g12r24g12&g48r12g12&g48r12g12&g48r48g12&g48r12g12&g48r12
A   b12r24b12&b48r12b12&b48r12a+12r24a+12&a+48r12a+12&a+48r12
E   e12r24e12&e48r12e12&e48r12    e12r24e12&e48r12e12&e48r12
C   r8g24a24b24>d12c24<b12>c24g12r24f12r24e16r48f12r24g24
H   <c12r24d12r24e12r24g12r24c+12r24d12r24e12r24g12r24
BF   r1&r1&r1
;1=============
D   f12r24f12&f48r12f12&f48r12a+12r24a+12&a+48r12g+12&g+48r12
A   >c12r24c12&c48r12c12&c48r12<b12r24b12&b48r12b12&b48r12
E   g12r24g12&g48r12g12&g48r12    g12r24g12&g48r12g12&g48r12

C   e12r24c12r6<a12r24a+12g+24a+12r12&r48g+12r48r48r48r48r48
H   d12r24e12r24f12r24d12r24c+12r24<g+12r24>c+12r24e12r24
;1=============
C   r8g24a24b24>d12c24<b12>c24d12r24c+12r24d12r24e12r24
D   g12r24g12&g48r12g12&g48r12g12r24g12&g48r12g12&g48r12
A   >d12r24d12&d48r12d12&d48r12c+12r24c+12&c+48r12c+12&c+48r12
E   e12r24e12&e48r12e12&e48r12    e12r24e12&e48r12e12&e48r12

H   e12r24f12r24g12r24e12r24c+12r24e12r24g12r24c+12r24
;1=============
D   g12r24g12&g48r12g24r12f12&f48r3&r8
A   c12r24c12&c48r12c24r12<b12&b48r3&r8
C   f12r24e12r24f12f+24r16g12r12&r48&r8r8r8
H   d12r24e12r24f12r24f+48r24g16 r2
E   r2&r3@0g24g12f24
F   r2&r>g48>g48
B   r1

